X: 29094
T: Neily Cleere's
R: polka
M: 2/4
K: Dmixolydian
FG|:A2 AB|c/B/A FG|AB c/B/A|G2 FG|
A2 AB|c/B/A fg/f/|ed AF|1 G2 FG:|2 G2 G2||
|:a2 fa|ga/g/ fg|a/b/a/g/ fa|g2 g>b|
ag fa|ge fg/f/|ed AF|1 G2 G2:|2 G2 FG||

